X:1
T:Hurrah! Hurrah for the Christmas Ship
T:Hurrah! Hurrah for the Christmas Ship
T:Words and Music by
T:Henry S. Sawyer
T:1914
T:1914
T:1914
T:1914
C:Words and Music by
Z:Henry S. Sawyer
Z:1914
%%score 1 { 2 | 3 }
L:1/8
Q:1/4=114
M:2/4
K:Bb
V:1 treble nm="Voice"
V:2 treble nm="Piano"
V:3 bass 
V:1
"^Moderato" z4 | z4 | z4 | z4 | z4 | z4 | z4 | z4 |:!p! z2 z F | FG FB | AG AF | BB cc | %12
w: ||||||||Come,|boys and girls, just|list- en to This|news for you and|
w: ||||||||The|pa- per says there's|thous ands who Are|home- less thro' the|
!<(! d3 d!<)! | ec ce | dB Bd | cG cd |!>(! c3 F!>)! | FG FB | AG AF | BB cc |!<(! d3 c!<)! | %21
w: me: They're|going to send a|Christ mas Ship A-|cross the great blue|sea! It's|going to be all|filled with gift For|fam- i- lies a-|broad Who've|
w: war; That|San- ta Claus can't|half get 'round As|he has done be-|fore. So|this year we'll help|San- ta Claus Re-|mem- ber each poor|child, And|
 eG ce | dF Bd | (cG) AF | B3 B | Ac cA | BG GB | Ac =Bd | c3 c |"_cresc." dd =ed | dc BA | BA BG | %32
w: suf- fered in this|cru- el war From|fire,- * gun and|Sword Now|all the boys and|all the girls Will|ev- 'ry ef- fort|bend To|see how ma- ny|use- ful things They|to the ship can|
w: bring a smile of|hap- pi- ness A-|mid those ter- rors|wild. Let|Dor- o- thy and|Ma- ry send A|pair of shoes a-|piece, And|lit- tle Jane can|send the dime She|got from Aunt Ber-|
 c3 G |!p! FB AG | AF BB | BB cc |!<(! d3 d!<)! | eG ce | dF Bd | cG A!>(!F!>)! |!>(! B3 z!>)! | %41
w: send; But|I was think- ing|we could do A-|bout as much real|good By|send- ing mon- ey|from our banks As|well as clothes and|food.|
w: nice; While|Tom and all the|boys and girls Are|ea- ger to pitch|in To|make this Christ- mas|time the best The|world has ev- er|seen.|
 z z3/2 z/ F | B>F cF/F/ | dc BF/F/ | GG BG | F3 F/B/ | Ac cA/c/ | Bd dB | Gc cd | c3 F | %50
w: Hur-|rah! hur- rah for the|Christ mas Ship As it|starts a- cross the|sea With its|load of gifts and its|great- er load of|lov- ing sym- pa-|thy. Let's|
w: |||||||||
 !>!B>F !>!cF | !>!d!>!c !>!BF/F/ | GB eG |"_cresc." F3 F | G/G/B cc | B!ff!d !fermata!fe/e/ | %56
w: wave our hats and|clap our hands as we|send it on its|trip; May|ma ny a heart and|home be cheered By the|
w: ||||||
 dB/B/ cF | B3 z || %58
w: gifts in the Christ mas|Ship!|
w: ||
V:2
 ([DF]2 [DB]2 | [DB]2 [DF]2) | ([B,G]E/G/ [B,EB]>G | [B,DF]3) (F/F/ | [EG][EGB] [FA][FAc] | %5
 [Fd][FBd] [GBf]!fermata![Gce]/)((e/ | [FBd]B/B/ [EAc][EF] | [DB])) z !>![Bdfb]2 |: z2 z F | %9
 [DF][DG] [DF][DB] | [EA][EG] [EA]F | [FB][FB] [FAc][FAc] |!<(! [FBd]3 d!<)! | [FAe]c c[FAe] | %14
 [FBd]B B[Fd] | [=Ec][EG] [Ec][EBd] |!>(! c[EA] [EG][EF]!>)! | [DF][DG] [DF][DB] | [EA][EG] [EA]F | %19
 [FB][FB] [FAc][FAc] | [FBd]!<(!F G[_Ad]!<)! | [Ge]G c[Ge] | [Fd]F B[Fd] | [=Ec]G [_EB]F | B3 B | %25
 [FA]c [Ec]A | [=EB]G G[EB] | [FA][Ac] [_A=B][Ad] | [Ac]3 c |"_cresc." [Bd]d [^F=e]d | %30
 [Ad]c [^FB]A | [GB]A [=EB]G | c[EA] [EG][EF] |!p! [DF][DG] [DF][DB] | [EA][EG] [EA]F | %35
 [FB][FB] [FAc][FAc] | [F=Bd]!<(!F G[_Ad]!<)! | [Ge]G c[Ge] | [Fd]F B[Fd] | [=Ec]G [_EA]F | %40
 [DB]3 z | z3!f! F | !>![DB]F !>![EAc]F/F/ | !>![DBd][Ec] [DB]F/F/ | [EG][EG] [EB][EG] | %45
 [DF]3 F/B/ | [EA][Ec] [Ec]A/e/ | [DB][Fd] [Fd][DB] | [=EG][Ec] [Ec][EBd] | [EAc]3 F | %50
 !>![DB]F !>![EAc]F | [DBd][Ec] [DB]F/F/ | [EG][GB] [Ge][EG] |"_cresc." [DF]3 F | %54
 [EG]/[EG]/[GB] [FA][FAc] | [FB][F=Bd]!ff! [GBf][Gce]/e/ | [FBd]B/B/ [EAc][EF] | %57
 [DB] z !>![GBdg] z || %58
V:3
 (([B,,,B,,]2 [B,,F,]2)) | ([B,,,B,,]2 [B,,F,]2) | (E,,2 G,,>E,, | [B,,,B,,]3/2) z/ z2 | %4
 (E,[G,B,] F,E, | D,B,, !fermata!G,,)(C, | F,,)[F,B,D] F,,[F,A,] | B,, z [B,,,B,,]2 |: z4 | %9
 B,,[F,B,] [F,B,][F,B,] | C,[F,A,] [F,A,][F,A,] | D,[F,B,D] C,[F,A,E] | B,,[F,B,D] [F,B,D] z | %13
 F,,[F,A,E] [F,A,E][F,A,E] | B,,[F,B,D] [F,B,D][F,B,D] | C,[G,B,C] C,[=E,B,C] | F,,F, G,A, | %17
 B,,[F,B,] [F,B,][F,B,] | C,[F,A,] [F,A,][F,A,] | D,[F,B,D] C,[F,A,E] | B,,[F,B,D] [F,B,D]B,, | %21
 E,,[G,CE] [G,CE][G,CE] | ^F,,[F,B,D] [F,B,D][F,B,D] | C,[G,B,C] F,,[F,A,] | B,,F,, B,,, z | %25
 A,,[F,A,C] ^F,,[=E,A,C] | G,,[=E,B,C] C,[G,B,C] | F,,[=E,G,=B,] F,,[F,B,D] | %28
 F,,[F,A,C] [F,A,C] z | B,,[F,B,D] =B,,[F,_A,E] | C,[F,A,C] D,[^F,C] | G,,[G,B,D] C,[B,C] | %32
 F,,C B,A, | B,,[F,B,] [F,B,][F,B,] | C,[F,A,] [F,A,][F,A,] | B,,[F,B,D] C,[F,A,E] | %36
 B,,[F,B,D] [F,B,D]B,, | E,,[G,CE] [G,CE][G,CE] | F,,[F,B,D] [F,B,D][F,B,D] | C,[G,B,C] F,,[F,A,] | %40
 B,,F,, B,,, z | z4 | [B,,G,] z !>![F,,F,] z | !>![B,,F,]!>![F,,F,] !>![B,,F,] z | G,B, G,E, | %45
 B,,[F,B,] [F,B,] z | F,,[F,A,] [F,A,] z | B,,[B,D] [B,D] z | C,[G,B,] [G,B,]C, | F,C, F,, z | %50
 [B,,F,] z [F,,F,] z | [B,,F,][F,,F,] [B,,F,] z | E,,[E,G,B,] E,,[E,G,B,] | B,,F, B, z | %54
 E,[G,B,] F,E, | D,B,, !fermata![G,,G,]C, | F,,[F,B,D] F,,[F,A,] | B,, z [B,,,B,,] z || %58

